X: 114
T:Country Dance at The Jubilee,A. HA.113
T:Edinburgh Castle,aka. HA.113
T:Trip To The Jubilee,aka. HA113
M:9/4
L:1/4
Q:150
S:Henry Atkinson's original MS,Hartburn,N'umberland,1694.
O:England
A:Hartburn,Northumberland
N:PLFD ed 9b(1698) #376..CGP
H:1/4
Z:vmp.Chris Partington.Jan.2004
K:D
"u"D|FA2 A2B (AF)D|GB2 (Bc)d E2E|!
FA2 A2B (AF)D|GB2"b"c2B (AF)D:|!
"d"Ad2 d>e f/e/ d2D|F/G/AA B/c/dF E2d|!
^ce2 e>f g/f/ e2E|G>A B/c/ d2e fed|!
BG2 B/c/de (d/B/)"cr"G2|AF2 A>BA E>F G/A/|!
B3A3d3|F2G A2B (AF)D|]
